X: 3935
T: Blackbird, The
R: hornpipe
M: 4/4
K: Dmajor
|:GA|~B3d A2Bc|d2AG F2D2|FGAF GBAG|F2D2 D2:|
FG|Addc d2 (3efg|fded cAGB|Addc dfag|f2d2 d2 (3gfe|
dcAF G2(3ABc|d2AG F2D2|FGAF GBAG|F2D2 D2:|

